flaticon/constructions/ruler-4.svg

<svg xmlns="http://www.w3.org/2000/svg" width="32" height="32" viewBox="0 0 24 24">
    <path d="M3.199219 5.398438C4.078125 5.398438 4.800781 4.679688 4.800781 3.800781 4.800781 2.921875 4.078125 2.199219 3.199219 2.199219 2.320312 2.199219 1.601562 2.921875 1.601562 3.800781 1.601562 4.679688 2.320312 5.398438 3.199219 5.398438zM3.199219 3C3.640625 3 4 3.359375 4 3.800781 4 4.238281 3.640625 4.601562 3.199219 4.601562 2.761719 4.601562 2.398438 4.238281 2.398438 3.800781 2.398438 3.359375 2.761719 3 3.199219 3zM3.199219 17.800781C2.320312 17.800781 1.601562 18.519531 1.601562 19.398438 1.601562 20.28125 2.320312 21 3.199219 21 4.078125 21 4.800781 20.28125 4.800781 19.398438 4.800781 18.519531 4.078125 17.800781 3.199219 17.800781zM3.199219 20.199219C2.761719 20.199219 2.398438 19.839844 2.398438 19.398438 2.398438 18.960938 2.761719 18.601562 3.199219 18.601562 3.640625 18.601562 4 18.960938 4 19.398438 4 19.839844 3.640625 20.199219 3.199219 20.199219zM18.839844 20.640625C19.160156 20.878906 19.519531 21 19.878906 21 19.921875 21 19.960938 21 20 21 20.441406 20.960938 20.800781 20.761719 21.078125 20.441406 21.640625 19.761719 21.558594 18.761719 20.878906 18.199219 20.199219 17.640625 19.199219 17.71875 18.640625 18.398438 18.078125 19.078125 18.160156 20.078125 18.839844 20.640625zM19.28125 18.921875C19.441406 18.71875 19.640625 18.640625 19.878906 18.640625 20.078125 18.640625 20.238281 18.679688 20.398438 18.839844 20.71875 19.121094 20.761719 19.640625 20.480469 19.960938 20.359375 20.121094 20.160156 20.238281 19.960938 20.238281 19.71875 20.238281 19.519531 20.160156 19.359375 20.039062 19.039062 19.761719 19 19.238281 19.28125 18.921875zM19.28125 18.921875"/>
    <path d="M 22.800781 7 C 23.480469 7 24 6.480469 24 5.800781 L 24 1.800781 C 24 1.121094 23.480469 0.601562 22.800781 0.601562 L 0.960938 0.601562 C 0.441406 0.601562 0 1.039062 0 1.558594 L 0 6.039062 C 0 6.40625 0.21875 6.730469 0.527344 6.890625 C 0.535156 6.902344 0.546875 6.910156 0.558594 6.921875 L 9.960938 15.035156 C 9.972656 15.050781 9.984375 15.066406 10 15.078125 C 10.011719 15.089844 10.03125 15.101562 10.050781 15.113281 L 11.148438 16.0625 C 11.164062 16.082031 11.179688 16.101562 11.199219 16.121094 C 11.214844 16.132812 11.234375 16.144531 11.261719 16.15625 L 11.308594 16.199219 L 0.960938 16.199219 C 0.441406 16.199219 0 16.640625 0 17.160156 L 0 21.640625 C 0 22.160156 0.441406 22.601562 0.960938 22.601562 L 18.722656 22.601562 L 19.28125 23.078125 C 19.519531 23.28125 19.800781 23.398438 20.121094 23.398438 C 20.160156 23.398438 20.199219 23.398438 20.199219 23.359375 C 20.558594 23.359375 20.839844 23.199219 21.078125 22.921875 L 21.347656 22.601562 L 22.800781 22.601562 C 23.480469 22.601562 24 22.078125 24 21.398438 L 24 17.359375 C 24 16.679688 23.480469 16.160156 22.800781 16.160156 L 20.972656 16.160156 L 10.058594 7 Z M 0.800781 1.558594 C 0.800781 1.480469 0.878906 1.398438 0.960938 1.398438 L 6 1.398438 L 6 2.601562 C 6 2.839844 6.160156 3 6.398438 3 C 6.640625 3 6.800781 2.839844 6.800781 2.601562 L 6.800781 1.398438 L 7.601562 1.398438 L 7.601562 3.398438 C 7.601562 3.640625 7.761719 3.800781 8 3.800781 C 8.238281 3.800781 8.398438 3.640625 8.398438 3.398438 L 8.398438 1.398438 L 9.199219 1.398438 L 9.199219 2.601562 C 9.199219 2.839844 9.359375 3 9.601562 3 C 9.839844 3 10 2.839844 10 2.601562 L 10 1.398438 L 10.800781 1.398438 L 10.800781 3.398438 C 10.800781 3.640625 10.960938 3.800781 11.199219 3.800781 C 11.441406 3.800781 11.601562 3.640625 11.601562 3.398438 L 11.601562 1.398438 L 12.398438 1.398438 L 12.398438 2.601562 C 12.398438 2.839844 12.558594 3 12.800781 3 C 13.039062 3 13.199219 2.839844 13.199219 2.601562 L 13.199219 1.398438 L 14 1.398438 L 14 3.398438 C 14 3.640625 14.160156 3.800781 14.398438 3.800781 C 14.640625 3.800781 14.800781 3.640625 14.800781 3.398438 L 14.800781 1.398438 L 15.601562 1.398438 L 15.601562 2.601562 C 15.601562 2.839844 15.757812 3 16 3 C 16.238281 3 16.398438 2.839844 16.398438 2.601562 L 16.398438 1.398438 L 17.199219 1.398438 L 17.199219 3.398438 C 17.199219 3.640625 17.359375 3.800781 17.601562 3.800781 C 17.839844 3.800781 18 3.640625 18 3.398438 L 18 1.398438 L 18.800781 1.398438 L 18.800781 2.601562 C 18.800781 2.839844 18.960938 3 19.199219 3 C 19.441406 3 19.601562 2.839844 19.601562 2.601562 L 19.601562 1.398438 L 20.398438 1.398438 L 20.398438 3.398438 C 20.398438 3.640625 20.558594 3.800781 20.800781 3.800781 C 21.039062 3.800781 21.199219 3.640625 21.199219 3.398438 L 21.199219 1.398438 L 22.800781 1.398438 C 23.039062 1.398438 23.199219 1.558594 23.199219 1.800781 L 23.199219 5.800781 C 23.199219 6.039062 23.039062 6.199219 22.800781 6.199219 L 0.960938 6.199219 C 0.878906 6.199219 0.800781 6.121094 0.800781 6.039062 Z M 0.960938 21.800781 C 0.878906 21.800781 0.800781 21.71875 0.800781 21.679688 L 0.800781 17.160156 C 0.800781 17.078125 0.878906 17 0.960938 17 L 6 17 L 6 18.199219 C 6 18.441406 6.160156 18.601562 6.398438 18.601562 C 6.640625 18.601562 6.800781 18.441406 6.800781 18.199219 L 6.800781 17 L 7.601562 17 L 7.601562 19 C 7.601562 19.238281 7.761719 19.398438 8 19.398438 C 8.238281 19.398438 8.398438 19.238281 8.398438 19 L 8.398438 17 L 9.199219 17 L 9.199219 18.199219 C 9.199219 18.441406 9.359375 18.601562 9.601562 18.601562 C 9.839844 18.601562 10 18.441406 10 18.199219 L 10 17 L 10.800781 17 L 10.800781 19 C 10.800781 19.238281 10.960938 19.398438 11.199219 19.398438 C 11.441406 19.398438 11.601562 19.238281 11.601562 19 L 11.601562 17 L 12.238281 17 L 12.339844 17.089844 C 12.359375 17.113281 12.378906 17.136719 12.398438 17.160156 C 12.414062 17.175781 12.441406 17.191406 12.472656 17.203125 L 17.796875 21.800781 Z M 23.199219 21.398438 C 23.199219 21.640625 23.039062 21.800781 22.800781 21.800781 L 22.078125 21.800781 L 23.199219 20.441406 Z M 22.800781 17 C 23.039062 17 23.199219 17.160156 23.199219 17.398438 L 23.199219 18.03125 L 21.972656 17 Z M 23.160156 19.039062 C 23.171875 19.039062 23.179688 19.042969 23.1875 19.050781 C 23.195312 19.089844 23.1875 19.144531 23.160156 19.199219 L 20.878906 21.921875 C 20.859375 21.953125 20.839844 21.988281 20.824219 22.027344 L 20.480469 22.441406 C 20.398438 22.519531 20.28125 22.601562 20.160156 22.601562 C 20.039062 22.601562 19.878906 22.558594 19.800781 22.480469 L 19.25 22.003906 C 19.226562 21.960938 19.199219 21.917969 19.160156 21.878906 L 15.675781 18.871094 L 16.878906 17.441406 C 17.039062 17.28125 17 17.039062 16.839844 16.878906 C 16.679688 16.71875 16.441406 16.761719 16.28125 16.921875 L 15.078125 18.351562 L 14.472656 17.828125 L 15.160156 17 C 15.320312 16.839844 15.28125 16.601562 15.121094 16.441406 C 14.960938 16.28125 14.71875 16.320312 14.558594 16.480469 L 13.871094 17.3125 L 13.25 16.773438 L 14.398438 15.398438 C 14.558594 15.238281 14.519531 15 14.359375 14.839844 C 14.199219 14.679688 13.960938 14.71875 13.800781 14.878906 L 12.640625 16.261719 C 12.621094 16.253906 12.59375 16.242188 12.570312 16.234375 L 12.023438 15.761719 L 12.679688 14.960938 C 12.839844 14.800781 12.800781 14.558594 12.640625 14.398438 C 12.480469 14.238281 12.238281 14.28125 12.078125 14.441406 L 11.421875 15.242188 L 10.789062 14.695312 L 12 13.320312 C 12.160156 13.160156 12.121094 12.921875 11.960938 12.761719 C 11.800781 12.601562 11.558594 12.640625 11.398438 12.800781 L 10.222656 14.207031 L 9.597656 13.667969 L 10.238281 12.878906 C 10.398438 12.71875 10.359375 12.480469 10.199219 12.320312 C 10.039062 12.160156 9.800781 12.199219 9.640625 12.359375 L 8.996094 13.148438 L 8.375 12.613281 L 9.519531 11.238281 C 9.679688 11.078125 9.640625 10.839844 9.480469 10.679688 C 9.320312 10.519531 9.078125 10.558594 8.921875 10.71875 L 7.777344 12.09375 L 7.175781 11.574219 L 7.800781 10.839844 C 7.960938 10.679688 7.921875 10.441406 7.761719 10.28125 C 7.601562 10.121094 7.359375 10.160156 7.199219 10.320312 L 6.578125 11.058594 L 5.972656 10.535156 L 7.078125 9.199219 C 7.238281 9.039062 7.199219 8.800781 7.039062 8.640625 C 6.878906 8.480469 6.640625 8.519531 6.480469 8.679688 L 5.371094 10.015625 L 4.765625 9.492188 L 5.359375 8.761719 C 5.480469 8.601562 5.441406 8.320312 5.28125 8.199219 C 5.121094 8.078125 4.839844 8.121094 4.71875 8.28125 L 4.148438 8.960938 L 1.878906 7 L 8.800781 7 Z M 23.160156 19.039062"/>
</svg>

<svg xmlns="http://www.w3.org/2000/svg" width="32" height="32" viewBox="0 0 24 24">
    <path d="M3.2 5.398c.878 0 1.6-.718 1.6-1.597 0-.88-.722-1.602-1.6-1.602-.88 0-1.598.723-1.598 1.602 0 .879.718 1.597 1.597 1.597zM3.2 3c.44 0 .8.36.8.8 0 .438-.36.802-.8.802a.807.807 0 0 1-.802-.801c0-.442.364-.801.801-.801zm0 0M3.2 17.8c-.88 0-1.598.72-1.598 1.598 0 .883.718 1.602 1.597 1.602.88 0 1.602-.719 1.602-1.602 0-.878-.723-1.597-1.602-1.597zm0 2.4c-.438 0-.802-.36-.802-.802a.801.801 0 0 1 1.602 0c0 .442-.36.801-.8.801zm0 0M18.84 20.64c.32.239.68.36 1.039.36H20a1.588 1.588 0 0 0 .879-2.8c-.68-.56-1.68-.481-2.238.198-.563.68-.48 1.68.199 2.243zm.441-1.718a.71.71 0 0 1 .598-.281c.2 0 .36.039.52.199.32.281.363.8.081 1.12a.683.683 0 0 1-.52.278.975.975 0 0 1-.6-.199.807.807 0 0 1-.079-1.117zm0 0"/>
    <path d="M22.8 7c.68 0 1.2-.52 1.2-1.2v-4c0-.679-.52-1.198-1.2-1.198H.96c-.519 0-.96.437-.96.957v4.48a.97.97 0 0 0 .527.852c.008.011.02.02.032.03l9.402 8.114a.205.205 0 0 0 .039.043c.012.012.031.024.05.035l1.098.95c.016.019.032.039.051.058a.296.296 0 0 0 .063.035l.047.043H.96c-.52 0-.961.442-.961.961v4.48c0 .52.441.962.96.962h17.763l.558.476c.239.203.52.32.84.32.04 0 .078 0 .078-.039.36 0 .64-.16.88-.437l.269-.32H22.8c.68 0 1.199-.524 1.199-1.204V17.36c0-.68-.52-1.199-1.2-1.199h-1.827L10.059 7zM.8 1.559c0-.079.079-.16.16-.16H6v1.203c0 .238.16.398.398.398.243 0 .403-.16.403-.398V1.398h.8v2c0 .243.16.403.399.403.238 0 .398-.16.398-.403v-2H9.2v1.204c0 .238.16.398.403.398.238 0 .398-.16.398-.398V1.398h.8v2c0 .243.16.403.4.403.241 0 .402-.16.402-.403v-2h.796v1.204c0 .238.16.398.403.398.238 0 .398-.16.398-.398V1.398H14v2c0 .243.16.403.398.403.243 0 .403-.16.403-.403v-2h.8v1.204c0 .238.157.398.399.398.238 0 .398-.16.398-.398V1.398h.801v2c0 .243.16.403.403.403.238 0 .398-.16.398-.403v-2h.8v1.204c0 .238.16.398.4.398.241 0 .402-.16.402-.398V1.398h.796v2c0 .243.16.403.403.403.238 0 .398-.16.398-.403v-2h1.602c.238 0 .398.16.398.403v4c0 .238-.16.398-.398.398H.96a.17.17 0 0 1-.16-.16zM.96 21.8c-.081 0-.16-.082-.16-.121v-4.52A.17.17 0 0 1 .96 17H6v1.2c0 .241.16.402.398.402.243 0 .403-.16.403-.403V17h.8v2c0 .238.16.398.399.398.238 0 .398-.16.398-.398v-2H9.2v1.2c0 .241.16.402.403.402.238 0 .398-.16.398-.403V17h.8v2c0 .238.16.398.4.398.241 0 .402-.16.402-.398v-2h.636l.102.09.058.07a.219.219 0 0 0 .075.043l5.324 4.598zm22.24-.403c0 .243-.16.403-.4.403h-.722l1.121-1.36zM22.8 17c.24 0 .4.16.4.398v.633L21.972 17zm.36 2.04c.012 0 .02.003.027.01.008.04 0 .095-.027.15l-2.281 2.722a.667.667 0 0 0-.055.105l-.344.414c-.082.079-.199.16-.32.16-.12 0-.281-.042-.36-.12l-.55-.477a.53.53 0 0 0-.09-.125l-3.484-3.008 1.203-1.43c.16-.16.121-.402-.04-.562-.16-.16-.398-.117-.558.043l-1.203 1.43-.605-.524.687-.828c.16-.16.121-.398-.039-.559-.16-.16-.402-.12-.562.04l-.688.831-.621-.539 1.148-1.375c.16-.16.122-.398-.039-.558-.16-.16-.398-.121-.558.039l-1.16 1.383c-.02-.008-.047-.02-.07-.028l-.548-.472.657-.801c.16-.16.12-.402-.04-.563-.16-.16-.402-.117-.562.043l-.656.801-.633-.547L12 13.32c.16-.16.121-.398-.04-.558-.16-.16-.401-.121-.562.039l-1.175 1.406-.625-.539.64-.79c.16-.16.121-.398-.039-.558-.16-.16-.398-.12-.558.04l-.645.788-.621-.535 1.145-1.375c.16-.16.12-.398-.04-.558-.16-.16-.402-.121-.558.039l-1.145 1.375-.601-.52.625-.734c.16-.16.12-.399-.04-.559-.16-.16-.402-.12-.562.04l-.62.738-.606-.524L7.078 9.2c.16-.16.121-.398-.039-.558-.16-.16-.398-.121-.559.039l-1.109 1.336-.605-.524.593-.73a.432.432 0 0 0-.078-.563c-.16-.12-.441-.078-.562.082l-.57.68L1.878 7H8.8zm0 0"/>
</svg>
